X: 1
T: Down Home Waltz   [D]
R: Waltz
Z: 2020 John Chambers <jc:trillian.mit.edu>
S: https://www.facebook.com/groups/Fiddletuneoftheday/ 2020-11-22
S: https://www.facebook.com/groups/Fiddletuneoftheday/photos/
S: kirby98.fsnet.co.uk/do/Down_Home_1.abc 2009-11
M: 3/4
L: 1/8
P: Play A1A2BA2 or A1A2BA2BA2
K: D
"^A"[|] ABc |\
d2 c2 (3BcB | A2 G2 (3FGF | E3 FGA | B6 | A3 BGA |\
[1 F3 FEG | F4 FG | F3 :|[2 F3 FEF | D6- | "^fine"D3- ||
"^B"[|] DFA |\
E3 FGB | A4 AG | F3 Ace | d4 dc | B3 cde | f3 fed | B3 gfg | e3 |]
